X: 54
T:Reel of Rio, The
T:Road to Rio, The
M:C|
L:1/8
C:Sen Ryan
R:Reel
K:G
GE[|:DEGA ~B3d|eg~g2 agea|gede gedB|(3ABc BA GE~E2|!
DEGA ~B3d|eg~g2 agea|gede gedB|1(3ABc BA G3E:|2(3ABc BA G3B|]!
dg~g2 ag~g2|bg~g2 edBd|eBBA GABd|gedB AGEG|!
DEGA ~B3d|eg~g2 agea|gede gedB|1(3ABc BA G3B:|2(3ABc BA G3E|]!
